packages/core/src/svgs/networks/branded/hedera-hashgraph.svg

<svg width="24" height="24" viewBox="0 0 24 24" fill="none" xmlns="http://www.w3.org/2000/svg">
<path d="M12 2C10.0222 2 8.08878 2.58649 6.44429 3.6853C4.79981 4.78411 3.51809 6.3459 2.76121 8.17316C2.00434 10.0004 1.8063 12.0111 2.19215 13.9509C2.578 15.8907 3.53041 17.6725 4.92893 19.0711C6.32746 20.4696 8.10928 21.422 10.0491 21.8079C11.9889 22.1937 13.9996 21.9956 15.8269 21.2387C17.6541 20.4819 19.2159 19.2002 20.3147 17.5557C21.4135 15.9112 22 13.9777 22 12C22 9.34783 20.9464 6.8043 19.0711 4.92893C17.1957 3.05356 14.6521 2 12 2Z" fill="black"/>
<path d="M16.0655 16.3253H14.7955V13.6253H9.20555V16.3253H7.93555V7.57031H9.20555V10.2053H14.7955V7.57031H16.0655V16.3253ZM9.26555 12.6153H14.8555V11.2203H9.26555V12.6153Z" fill="white"/>
</svg>

<svg xmlns="http://www.w3.org/2000/svg" width="24" height="24" fill="none" viewBox="0 0 24 24">
    <path fill="#000" d="M12 2a10 10 0 1 0 0 20 10 10 0 0 0 0-20"/>
    <path fill="#fff" d="M16.066 16.325h-1.27v-2.7h-5.59v2.7h-1.27V7.57h1.27v2.635h5.59V7.57h1.27zm-6.8-3.71h5.59V11.22h-5.59z"/>
</svg>
